images_sukapura_svg/cmd/sc_flowchartshapes.flowchart-predefined-process.svg

<svg viewBox="0 0 16 16" xmlns="http://www.w3.org/2000/svg" xmlns:xlink="http://www.w3.org/1999/xlink"><linearGradient id="a" gradientUnits="userSpaceOnUse" x1="-30.923729" x2="-30.923729" y1="1.330509" y2="-13.669491"><stop offset="0" stop-color="#e5eefc"/><stop offset="1" stop-color="#fcfdff"/></linearGradient>
/&amp;gt;<path d="m.5.5v15h3v-15zm6 0v15h2.076923.576923.346154v-15h-.346154-.576923zm6 0v15h1.846154 1.153846v-15h-1.153846z" fill="url(#a)" stroke="#0a84ff" stroke-linejoin="round"/></svg>

<?xml version="1.0" encoding="UTF-8" standalone="no"?>
<svg
   xmlns:dc="http://purl.org/dc/elements/1.1/"
   xmlns:cc="http://creativecommons.org/ns#"
   xmlns:rdf="http://www.w3.org/1999/02/22-rdf-syntax-ns#"
   xmlns:svg="http://www.w3.org/2000/svg"
   xmlns="http://www.w3.org/2000/svg"
   xmlns:xlink="http://www.w3.org/1999/xlink"
   xmlns:sodipodi="http://sodipodi.sourceforge.net/DTD/sodipodi-0.dtd"
   xmlns:inkscape="http://www.inkscape.org/namespaces/inkscape"
   viewBox="0 0 16 16"
   version="1.1"
   id="svg4"
   sodipodi:docname="sc_flowchartshapes.flowchart-predefined-process.svg"
   inkscape:version="0.92.3 (2405546, 2018-03-11)"><metadata
   id="metadata10">
  <rdf:RDF>
    <cc:Work
       rdf:about="">
      <dc:format>image/svg+xml</dc:format>
      <dc:type
         rdf:resource="http://purl.org/dc/dcmitype/StillImage" />
      <dc:title></dc:title>
    </cc:Work>
  </rdf:RDF>
</metadata>
<defs
   id="defs8">
  <linearGradient
     gradientTransform="translate(-37.423729,-14.169491)"
     id="a"
     gradientUnits="userSpaceOnUse"
     x1="12"
     x2="12"
     y1="21.5"
     y2="2.5">
    <stop
       offset="0"
       stop-color="#e5eefc"
       id="stop1020" />
    <stop
       offset="1"
       stop-color="#fcfdff"
       id="stop1022" />
  </linearGradient>
  <linearGradient
     inkscape:collect="always"
     xlink:href="#a"
     id="linearGradient837"
     x1="6.5"
     y1="15.5"
     x2="6.5"
     y2="0.5"
     gradientUnits="userSpaceOnUse" />
</defs>
<sodipodi:namedview
   pagecolor="#ffffff"
   bordercolor="#666666"
   borderopacity="1"
   objecttolerance="10"
   gridtolerance="10"
   guidetolerance="10"
   inkscape:pageopacity="0"
   inkscape:pageshadow="2"
   inkscape:window-width="1366"
   inkscape:window-height="716"
   id="namedview6"
   showgrid="true"
   inkscape:zoom="6.5000137"
   inkscape:cx="-13.2194"
   inkscape:cy="9.5117923"
   inkscape:window-x="-8"
   inkscape:window-y="-8"
   inkscape:window-maximized="1"
   inkscape:current-layer="svg4">
  <inkscape:grid
     type="xygrid"
     id="grid829" />
</sodipodi:namedview>
/&gt;<path
   d="m 0.5,0.5 v 15 h 3 v -15 z m 6,0 v 15 H 8.576923 9.153846 9.5 V 0.5 H 9.153846 8.576923 Z m 6,0 v 15 H 14.346154 15.5 v -15 h -1.153846 z"
   id="path2"
   inkscape:connector-curvature="0"
   style="fill:url(#linearGradient837);stroke:#0a84ff;stroke-linejoin:round;fill-opacity:1;stroke-opacity:1"
   sodipodi:nodetypes="ccccccccccccccccccccc" />
</svg>
